img/bank/img-5.svg

<svg width="36" height="34" viewBox="0 0 36 34" fill="none" xmlns="http://www.w3.org/2000/svg">
<rect width="36" height="34" rx="11" fill="url(#paint0_linear)"/>
<g clip-path="url(#clip0)">
<path d="M21.2072 8H18.6992C16.1578 8 13.5939 9.9132 13.5939 14.1879C13.5939 16.402 14.5142 18.1264 16.2012 19.1069L13.1137 24.8054C12.9671 25.075 12.9633 25.3802 13.1033 25.6224C13.2399 25.8587 13.4898 26 13.7715 26H15.3334C15.6882 26 15.9651 25.8253 16.0975 25.5187L18.9926 19.745H19.204V25.2804C19.204 25.6706 19.5267 26 19.9091 26H21.2734C21.702 26 22.0013 25.6948 22.0013 25.2582V8.7875C22.0009 8.32379 21.6744 8 21.2072 8ZM19.2036 17.1804H18.8309C17.3856 17.1804 16.5229 15.9777 16.5229 13.9629C16.5229 11.4576 17.6128 10.565 18.6327 10.565H19.2033V17.1804H19.2036Z" fill="#D7143A"/>
</g>
<defs>
<linearGradient id="paint0_linear" x1="18" y1="0" x2="18" y2="34" gradientUnits="userSpaceOnUse">
<stop stop-color="white"/>
<stop offset="1" stop-color="white"/>
</linearGradient>
<clipPath id="clip0">
<rect width="9" height="18" fill="white" transform="translate(13 8)"/>
</clipPath>
</defs>
</svg>

<svg width="36" height="34" fill="none" xmlns="http://www.w3.org/2000/svg"><rect width="36" height="34" rx="11" fill="url(#paint0_linear)"/><g clip-path="url(#clip0)"><path d="M21.207 8H18.7c-2.541 0-5.105 1.913-5.105 6.188 0 2.214.92 3.938 2.607 4.919l-3.087 5.698a.83.83 0 00-.01.817.76.76 0 00.668.378h1.561c.355 0 .632-.175.764-.481l2.896-5.774h.211v5.535c0 .39.323.72.705.72h1.364c.429 0 .728-.305.728-.742V8.788c0-.464-.327-.788-.794-.788zm-2.003 9.18h-.373c-1.445 0-2.308-1.202-2.308-3.217 0-2.505 1.09-3.398 2.11-3.398h.57v6.615z" fill="#D7143A"/></g><defs><linearGradient id="paint0_linear" x1="18" y1="0" x2="18" y2="34" gradientUnits="userSpaceOnUse"><stop stop-color="#fff"/><stop offset="1" stop-color="#fff"/></linearGradient><clipPath id="clip0"><path fill="#fff" transform="translate(13 8)" d="M0 0h9v18H0z"/></clipPath></defs></svg>
